X: 1
T: Farewell, My Fancy
%T: 8x32S 3C (Robert M. Campbell)
%P: Farewell, My Fancy
R: strathspey
C: by Fred Moyes
S: Arr. T. Traub 8-4-03
M: 4/4
L: 1/8
K: G
D2 |\
"G"G2 G>A B>A B<d | "Em"E2 E>F G>F G<B | "Am"E<A c>d e>c A<G | "D"F>A "A7"E>G "D"F<D B>A |
"G"G2 G>A B>A B<d | "Em"E2 E>F G>F G<B | "Am"E<A c>d "C"e>c A<G | "D"F<D B>A "G"G2 G2 |]
"C"e2 e>f g>f e2 | "G"d<B B2 B>A G>F | "C"E>^D E>F G>E G<B | "A7"e>B A>G "D"F<A (3DEF |
"G"G2 G>A B>A B<d | "Em"E2 E>F G>F G<B | "Am"E<A c>d e>c e<g | "D"d<B A>G "G"G2 |]
